static/img/tezos_logo.svg

<svg width="24" height="32" viewBox="0 0 24 32" fill="none" xmlns="http://www.w3.org/2000/svg">
<path d="M23.0662 23.6079C22.7317 17.7312 15.2854 15.06 14.5727 14.7856C14.5436 14.7712 14.5436 14.7423 14.5582 14.7134L22.2372 7.06071V6.23768C22.2372 6.10773 22.1209 5.99222 21.99 5.99222H7.83902V0L2.61785 1.08293V1.86264H2.90873C2.90873 1.86264 4.18857 1.86264 4.18857 3.13328V5.97778H0.145436C0.0727182 5.97778 0 6.04998 0 6.12217V7.92706H4.20311V17.7312C4.20311 20.8067 6.19559 22.9437 9.68606 22.6549C10.4278 22.5972 11.1113 22.3084 11.6931 21.933C11.9549 21.7597 12.1148 21.4854 12.1148 21.1677V20.2003C10.9804 20.9511 10.0206 20.9078 10.0206 20.9078C7.80993 20.9078 7.85356 18.121 7.85356 18.121V7.92706H18.0341L10.7041 15.2621C10.6896 16.2295 10.675 16.9804 10.675 16.9948C10.675 17.0237 10.6896 17.0381 10.7187 17.0381C17.4378 18.1644 19.2558 22.4817 19.2558 23.7379C19.2558 23.7379 19.983 29.8456 13.831 30.2643C13.831 30.2643 9.80241 30.4376 9.08977 28.8348C9.06068 28.7771 9.08977 28.7193 9.14794 28.6905C9.81695 28.3872 10.2678 27.7952 10.2678 27.0011C10.2678 25.8171 9.54062 24.8497 8.01354 24.8497C6.77733 24.8497 5.75928 25.8171 5.75928 27.0011C5.75928 27.0011 5.17753 32.1414 13.8165 31.997C23.677 31.8237 23.0662 23.6079 23.0662 23.6079Z" fill="#030405"/>
</svg>

<svg xmlns="http://www.w3.org/2000/svg" width="24" height="32" fill="none"><path fill="#030405" d="M23.066 23.608c-.334-5.877-7.78-8.548-8.493-8.822-.03-.015-.03-.044-.015-.073l7.68-7.652v-.823a.254.254 0 0 0-.248-.246H7.839V0L2.618 1.083v.78h.29s1.28 0 1.28 1.27v2.845H.146c-.072 0-.145.072-.145.144v1.805h4.203v9.804c0 3.076 1.993 5.213 5.483 4.924.742-.058 1.425-.347 2.007-.722a.907.907 0 0 0 .422-.765V20.2c-1.135.751-2.094.708-2.094.708-2.211 0-2.167-2.787-2.167-2.787V7.927h10.18l-7.33 7.335c-.014.968-.029 1.718-.029 1.733 0 .029.015.043.044.043 6.719 1.126 8.537 5.444 8.537 6.7 0 0 .727 6.108-5.425 6.526 0 0-4.029.174-4.741-1.43-.03-.057 0-.115.058-.143.669-.304 1.12-.896 1.12-1.69 0-1.184-.727-2.151-2.254-2.151-1.237 0-2.255.967-2.255 2.151 0 0-.581 5.14 8.057 4.996 9.861-.173 9.25-8.39 9.25-8.39Z"/></svg>
